X:1636
T:Dr O'Neill
O:england
R:double jig
M:6/8
L:1/8
K:D
A|d3 AFD|E2F G2A|BGB Bcd|AGF EFA|
d3 AFD|E2F G2A|BGB Bcd|AFD D2:|
|:A|d3 ceA|dfe dcB|AFA Bcd|AGF EFA|
d3 ceA|dfe dcB|AFA Bcd|AFD D2:|
|:g|fef afd|dcd fed|gbg faf|gee e2g|
fef afd|dcd fed|gbg faf|fdd d2:|
|:g|fdf ece|dcB AFA|AFd AFd|AGF E2g|
fdf ece|dcB AFA|AFA Bcd|AFD D2:|
|:E|FAF GBG|FAF FED|FAF GBG|AGF E2D|
FAF GBG|FGF FED|BGB Bcd|AFD D2:|


